dist/projects/justice/icons/action.svg

<svg width="80" height="80" viewBox="0 0 80 80" fill="none" xmlns="http://www.w3.org/2000/svg">
<path d="M10.0171 50.0132L11.2671 57.5132C11.3199 57.8302 11.4929 58.1148 11.75 58.3077L21.4375 65.5733L22.5641 68.953C22.6471 69.2019 22.8062 69.4184 23.0191 69.5718C23.2319 69.7252 23.4877 69.8077 23.75 69.8077C23.8191 69.8076 23.8881 69.8019 23.9563 69.7906L24.5555 69.6907L23.815 71.9122C23.7722 72.0397 23.7503 72.1732 23.75 72.3077V76.0577C23.75 76.3892 23.8817 76.7072 24.1161 76.9416C24.3506 77.176 24.6685 77.3077 25 77.3077H55C55.1902 77.3077 55.3778 77.2643 55.5486 77.1809C55.7195 77.0974 55.869 76.9761 55.9859 76.8261C56.1028 76.6762 56.1839 76.5015 56.2232 76.3155C56.2624 76.1294 56.2586 75.9369 56.2122 75.7525L55.4586 72.7596L63.1305 77.143C63.4054 77.3001 63.7297 77.347 64.0378 77.2742C64.3459 77.2015 64.615 77.0145 64.7907 76.7511C64.7907 76.7511 67.3921 72.8167 67.4044 72.7868C67.4092 72.7753 68.7133 67.6108 68.7133 67.6108C68.7823 67.3349 68.7551 67.0438 68.6363 66.7854C68.5174 66.527 68.3141 66.3169 68.0597 66.1897L65.5597 64.9397C65.325 64.8224 65.0594 64.7819 64.8004 64.824C64.5414 64.866 64.3022 64.9885 64.1167 65.1741C64.1167 65.1741 61.3894 67.9611 61.3288 68.1257L58.2894 66.4272L63.4349 60.6383C63.6099 60.4415 63.7182 60.1944 63.7444 59.9324L64.9944 47.4324C65.0067 47.309 65.0007 47.1845 64.9764 47.0628L63.0196 37.2786C62.6335 35.3483 61.7074 33.5673 60.349 32.1427C58.9905 30.718 57.2556 29.7083 55.3458 29.231L52.8517 28.6074L45.8871 26.2858L45 24.5125V22.6202L45.75 22.0577C45.9053 21.9413 46.0313 21.7903 46.1181 21.6167C46.2048 21.4431 46.25 21.2517 46.25 21.0577V18.5577C46.5816 18.5577 46.8995 18.426 47.1339 18.1916C47.3683 17.9571 47.5 17.6392 47.5 17.3077V12.5039C48.3286 9.95271 48.7504 7.28696 48.75 4.60456V3.55769C48.75 3.22616 48.6183 2.90822 48.3839 2.6738C48.1495 2.43938 47.8316 2.30769 47.5 2.30769H41.0355C38.5114 2.30067 36.0835 3.27597 34.2657 5.02722L32.2361 6.04206C31.1886 6.56582 30.3076 7.37095 29.6919 8.36721C29.0762 9.36347 28.75 10.5115 28.75 11.6827C28.75 12.8539 29.0762 14.0019 29.6919 14.9982C30.3076 15.9944 31.1886 16.7995 32.2361 17.3233L32.5103 17.4603C32.5476 17.763 32.6942 18.0416 32.9225 18.2437C33.1508 18.4458 33.4451 18.5575 33.75 18.5577V21.0577C33.75 21.2517 33.7952 21.4431 33.882 21.6167C33.9688 21.7903 34.0948 21.9413 34.25 22.0577L35 22.6202V24.5125L34.0946 26.3233L28.5092 28.5577H27.691C24.8385 28.5577 22.0785 29.5696 19.902 31.4134C17.7254 33.2571 16.2735 35.8132 15.8046 38.6269L15.0702 43.0311L10.2739 49.0264C10.1642 49.1636 10.0846 49.3224 10.0403 49.4924C9.99606 49.6624 9.98813 49.8399 10.0171 50.0132ZM26.25 72.5108L27.3449 69.2261L31.4555 68.5411C31.6796 68.5038 31.8893 68.406 32.062 68.2584C32.2348 68.1108 32.364 67.9189 32.4358 67.7033L33.2666 65.211L42.4475 68.8828L41.46 70.3641C41.2864 70.6243 41.2167 70.9402 41.2646 71.2493C41.3125 71.5584 41.4746 71.8383 41.7188 72.0338L45.1866 74.8077H26.25V72.5108ZM27.8841 45.4574L28.4186 49.735L25.7269 48.2308L27.8841 45.4574ZM38.25 36.3077C38.7558 36.6841 39.3695 36.8874 40 36.8874C40.6305 36.8874 41.2442 36.6841 41.75 36.3077C44.1033 34.5336 45.6713 31.9113 46.1205 28.9986L46.2443 29.0399C46.1881 33.0726 45.3648 37.0577 43.8183 40.7825C43.1992 42.2778 42.4676 43.724 41.6297 45.1086L41.25 45.0327V41.0577C41.25 40.7262 41.1183 40.4082 40.8839 40.1738C40.6495 39.9394 40.3316 39.8077 40 39.8077C39.6685 39.8077 39.3506 39.9394 39.1161 40.1738C38.8817 40.4082 38.75 40.7262 38.75 41.0577V45.0817L35.1455 45.9828L30.5591 43.6897C30.4361 43.6284 30.3038 43.588 30.1675 43.5699L30 42.2296V30.6539L33.895 29.096C34.364 31.9709 35.924 34.5541 38.25 36.3077ZM50.2227 72.8172L48.6572 74.3827L44.1758 70.7975L45.8022 68.358L47.0018 67.9582C47.0128 67.9544 47.0232 67.9496 47.0341 67.9455L51.4113 70.4467C51.4016 70.4641 51.391 70.4807 51.3821 70.4986L50.2227 72.8172ZM41.7839 57.2036L44.7921 53.8946C47.409 51.0177 49.5197 47.7184 51.0346 44.1366L48.7982 51.9647C48.7663 52.0763 48.7501 52.1917 48.75 52.3077V61.0964L41.7839 57.2036ZM51.25 52.4827L52.8191 46.991L53.75 48.8528V56.9072L51.25 60.4072V52.4827ZM51.25 30.7241C51.2563 38.6722 48.2934 46.336 42.9424 52.213L39.5436 55.9516L37.0291 54.5464L38.6613 52.9144C44.8017 46.7754 48.3958 38.543 48.7238 29.8663L51.25 30.7086V30.7241ZM31.1272 51.2483L30.53 46.4702L34.441 48.4257C34.7078 48.5591 35.0137 48.5927 35.3032 48.5203L40.0303 47.3385L40.1322 47.3589C39.1527 48.7037 38.0699 49.97 36.8935 51.1464L34.761 53.2789L31.1272 51.2483ZM24.1741 50.2267L36.5313 57.1322L35.2099 59.1143C35.1178 59.2508 35.0536 59.4042 35.0209 59.5657C34.9883 59.7271 34.9879 59.8934 35.0198 60.055C35.0516 60.2166 35.1151 60.3703 35.2066 60.5073C35.2981 60.6443 35.4157 60.7619 35.5527 60.8532C35.6898 60.9446 35.8435 61.008 36.0051 61.0398C36.1668 61.0715 36.3331 61.071 36.4945 61.0383C36.6559 61.0056 36.8093 60.9413 36.9458 60.8491C37.0823 60.7569 37.1992 60.6386 37.2899 60.5011L38.7203 58.3555L40.4777 59.3375L38.9599 61.6143C38.8678 61.7508 38.8036 61.9042 38.7709 62.0657C38.7383 62.2271 38.7379 62.3934 38.7698 62.555C38.8016 62.7166 38.8651 62.8703 38.9566 63.0073C39.0481 63.1443 39.1657 63.2619 39.3027 63.3532C39.4398 63.4446 39.5935 63.508 39.7551 63.5398C39.9168 63.5715 40.0831 63.571 40.2445 63.5383C40.4059 63.5056 40.5593 63.4413 40.6958 63.3491C40.8323 63.2569 40.9492 63.1386 41.0399 63.0011L42.6667 60.5608L46.9966 62.9805L45.1574 65.9375L44.6047 66.1217C44.341 66.2096 44.1141 66.3829 43.9599 66.6143L43.8646 66.7572L33.2032 62.4924L29.6346 58.9238C29.5184 58.8076 29.3805 58.7155 29.2287 58.6527C29.077 58.5899 28.9143 58.5576 28.75 58.5577H25.6008L21.5921 53.5469L24.1741 50.2267ZM51.7678 74.8077L52.1339 74.4416C52.229 74.3466 52.3082 74.2369 52.3683 74.1167L52.9366 72.9805L53.3963 74.8077H51.7678ZM63.3572 74.3936L48.2217 65.7452L49.1816 64.2019L64.4599 72.7399L63.3572 74.3936ZM65.2469 67.5786L66.0438 67.9772L65.4332 70.4196L63.4908 69.3343L65.2469 67.5786ZM58.4077 33.733C59.5114 34.8346 60.2631 36.2392 60.5674 37.7686L62.4875 47.3702L61.2969 59.28L56.0541 65.178L52.3807 63.1253L56.0172 58.0342C56.1686 57.8222 56.25 57.5682 56.25 57.3077V48.5577C56.25 48.3636 56.2048 48.1722 56.118 47.9986L53.75 43.2625V31.4086L54.7389 31.6558C56.1274 32.0031 57.3955 32.721 58.4077 33.733ZM35 16.0577V13.5577H45V16.0577H42.7952L40.5591 14.9397C40.3855 14.8529 40.1941 14.8077 40 14.8077C39.806 14.8077 39.6145 14.8529 39.441 14.9397L37.2049 16.0577H35ZM31.25 11.6827C31.2476 10.9753 31.4435 10.2814 31.8154 9.67963C32.1873 9.07788 32.7203 8.59237 33.3541 8.27815L35.5591 7.17565C35.6793 7.11558 35.789 7.03643 35.8839 6.94128C36.5589 6.26269 37.3617 5.72471 38.246 5.35848C39.1303 4.99224 40.0784 4.80503 41.0355 4.80769H46.2491C46.2312 6.92327 45.9223 9.02633 45.331 11.0577H33.75C33.4185 11.0577 33.1006 11.1894 32.8661 11.4238C32.6317 11.6582 32.5 11.9762 32.5 12.3077V14.5046C32.1051 14.1485 31.7896 13.7131 31.5742 13.2269C31.3588 12.7407 31.2484 12.2145 31.25 11.6827ZM37.5 18.5577C37.6941 18.5577 37.8855 18.5125 38.0591 18.4257L40 17.4552L41.941 18.4257C42.1145 18.5125 42.306 18.5577 42.5 18.5577H43.75V20.4327L41.25 22.3077H38.75L36.25 20.4327V18.5577H37.5ZM37.5835 24.5577C37.7998 24.72 38.063 24.8077 38.3335 24.8077H41.6669C41.9374 24.8077 42.2005 24.72 42.4169 24.5577L42.5 24.4952V24.8077C42.5 25.0018 42.5452 25.1932 42.6321 25.3667L43.7414 27.5855C43.6973 28.8954 43.3608 30.1788 42.7567 31.3419C42.1527 32.5049 41.2962 33.5183 40.25 34.3077C40.1778 34.3614 40.0901 34.3904 40 34.3904C39.91 34.3904 39.8223 34.3614 39.75 34.3077C38.7039 33.5184 37.8474 32.5052 37.2433 31.3423C36.6391 30.1793 36.3026 28.896 36.2583 27.5863L37.3677 25.3675C37.4548 25.1938 37.5001 25.0021 37.5 24.8077V24.4952L37.5835 24.5577ZM17.2261 44.3389C17.3596 44.1723 17.448 43.9742 17.483 43.7636L18.2705 39.0385C18.6366 36.8408 19.7596 34.8402 21.4451 33.3831C23.1306 31.9261 25.2725 31.1041 27.5 31.0596V41.8788L23.1628 47.455C23.0076 47.5372 22.8716 47.6514 22.7638 47.7901C22.6561 47.9288 22.579 48.0888 22.5378 48.2596L19.0139 52.7908C18.8415 53.0125 18.7488 53.2859 18.7507 53.5667C18.7527 53.8476 18.8491 54.1196 19.0246 54.3389L24.0246 60.5889C24.1416 60.7352 24.2901 60.8532 24.4589 60.9344C24.6278 61.0155 24.8127 61.0576 25 61.0577H28.2324L31.0699 63.8953L30.3022 66.1983L24.5982 67.1491L23.6858 64.4124C23.6054 64.1712 23.4534 63.9602 23.25 63.8077L13.6507 56.6082L12.5749 50.1527L17.2261 44.3389Z" fill="white"/>
</svg>

<svg width="80" height="80" fill="none" xmlns="http://www.w3.org/2000/svg"><path d="M10.017 50.013l1.25 7.5c.053.317.226.602.483.795l9.688 7.265 1.126 3.38a1.25 1.25 0 001.392.838l.6-.1-.741 2.221a1.251 1.251 0 00-.065.396v3.75a1.25 1.25 0 001.25 1.25h30a1.25 1.25 0 001.212-1.556l-.753-2.992 7.671 4.383a1.25 1.25 0 001.66-.392s2.602-3.934 2.614-3.964c.005-.012 1.31-5.176 1.31-5.176a1.25 1.25 0 00-.654-1.421l-2.5-1.25a1.25 1.25 0 00-1.443.234s-2.728 2.787-2.788 2.952l-3.04-1.699 5.146-5.789a1.25 1.25 0 00.31-.706l1.25-12.5a1.253 1.253 0 00-.019-.37L63.02 37.28a10.397 10.397 0 00-7.674-8.048l-2.494-.624-6.965-2.321L45 24.512V22.62l.75-.562a1.25 1.25 0 00.5-1v-2.5a1.25 1.25 0 001.25-1.25v-4.804a25.56 25.56 0 001.25-7.9V3.559a1.25 1.25 0 00-1.25-1.25h-6.465a9.719 9.719 0 00-6.77 2.72l-2.029 1.014a6.306 6.306 0 000 11.281l.274.137a1.25 1.25 0 001.24 1.098v2.5a1.25 1.25 0 00.5 1l.75.562v1.892l-.905 1.811-5.586 2.235h-.818a12.05 12.05 0 00-11.886 10.069l-.735 4.404-4.796 5.995a1.252 1.252 0 00-.257.987zM26.25 72.511l1.095-3.285 4.11-.685a1.25 1.25 0 00.98-.838l.832-2.492 9.18 3.672-.987 1.481a1.25 1.25 0 00.259 1.67l3.468 2.774H26.25V72.51zm1.634-27.054l.535 4.278-2.692-1.504 2.157-2.774zm10.366-9.15a2.931 2.931 0 003.5 0A11.313 11.313 0 0046.12 29l.124.04a31.778 31.778 0 01-2.426 11.743 31.998 31.998 0 01-2.188 4.327l-.38-.076v-3.975a1.25 1.25 0 00-2.5 0v4.024l-3.605.9-4.586-2.292a1.245 1.245 0 00-.392-.12L30 42.23V30.654l3.895-1.558a11.313 11.313 0 004.355 7.212zm11.973 36.51l-1.566 1.566-4.481-3.585 1.626-2.44 1.2-.4.032-.013 4.377 2.502-.029.052-1.16 2.318zm-8.44-15.613l3.01-3.31a34.438 34.438 0 006.242-9.757l-2.237 7.828a1.252 1.252 0 00-.048.343v8.788l-6.966-3.892zm9.467-4.721l1.57-5.492.93 1.862v8.054l-2.5 3.5v-7.924zm0-21.759a31.881 31.881 0 01-8.308 21.489l-3.398 3.739-2.515-1.406 1.632-1.632a34.43 34.43 0 0010.063-23.048l2.526.843v.015zM31.127 51.248l-.597-4.778 3.911 1.956c.267.133.573.167.862.094l4.727-1.181.102.02a32 32 0 01-3.238 3.787L34.76 53.28l-3.634-2.03zm-6.953-1.021l12.357 6.905-1.321 1.982a1.25 1.25 0 102.08 1.387l1.43-2.145 1.758.981-1.518 2.277a1.25 1.25 0 102.08 1.387l1.627-2.44 4.33 2.42-1.84 2.956-.552.185a1.25 1.25 0 00-.645.492l-.095.143-10.662-4.265-3.568-3.568a1.25 1.25 0 00-.885-.366H25.6l-4.008-5.011 2.582-3.32zm27.594 24.58l.366-.365c.095-.095.174-.205.234-.325l.569-1.136.46 1.827h-1.63zm11.59-.413l-15.136-8.649.96-1.543L64.46 72.74l-1.103 1.654zm1.889-6.815l.797.398-.61 2.443-1.943-1.086 1.756-1.755zm-6.84-33.846a7.872 7.872 0 012.16 4.036l1.92 9.601-1.19 11.91-5.243 5.898-3.673-2.053 3.636-5.09a1.25 1.25 0 00.233-.727v-8.75a1.25 1.25 0 00-.132-.56l-2.368-4.735V31.409l.989.247a7.9 7.9 0 013.669 2.077zM35 16.058v-2.5h10v2.5h-2.205L40.56 14.94a1.25 1.25 0 00-1.118 0l-2.236 1.118H35zm-3.75-4.375a3.786 3.786 0 012.104-3.405l2.205-1.102c.12-.06.23-.14.325-.235a7.238 7.238 0 015.151-2.133h5.214a23.06 23.06 0 01-.918 6.25H33.75a1.25 1.25 0 00-1.25 1.25v2.197a3.785 3.785 0 01-1.25-2.822zm6.25 6.875c.194 0 .386-.046.56-.132l1.94-.97 1.941.97c.173.087.365.132.559.132h1.25v1.875l-2.5 1.875h-2.5l-2.5-1.875v-1.875h1.25zm.084 6c.216.162.479.25.75.25h3.333c.27 0 .533-.088.75-.25l.083-.063v.313c0 .194.045.385.132.559l1.11 2.218a8.791 8.791 0 01-3.492 6.723.419.419 0 01-.5 0 8.792 8.792 0 01-3.492-6.722l1.11-2.218c.087-.174.132-.366.132-.56v-.313l.084.063zm-20.358 19.78c.134-.166.222-.364.257-.574l.787-4.726a9.55 9.55 0 019.23-7.978v10.819l-4.337 5.576a1.24 1.24 0 00-.625.805l-3.524 4.53a1.25 1.25 0 00.01 1.549l5 6.25a1.25 1.25 0 00.976.469h3.232l2.838 2.837-.768 2.303-5.704.951-.912-2.737a1.25 1.25 0 00-.436-.604l-9.6-7.2-1.075-6.455 4.651-5.814z" fill="#fff"/></svg>
